X:37
C:Page 19
T:London March. MBe.37, The
S:Matthew Betham MS, Towcett Cumbria, 1815
O:England;Cumbria;Towcett
Z:VMP – Hugh Taylor, 2012
T:Lord Lowden’s March,aka. MBe.37
M:C
L:1/8
Q:1/2=60
R:.March
K:G
B2 B>B B2 A2|G>A”^sic”d>g ~e2 d2|e>gd>g c>gB>g|A>GA>B A2 A>A|
B2 B>B B2 ~A2|G>A”^sic”d>g ~e2 d2|e>gd>g c>fg>b| b2 a2 !fermata!g4″^Fine”:|
|:d>cB>c d>dc>B|A>Bc>A ~B2 A2|G>GG>A B>BB>c|d>dc>B ~B2 A2|
d>cB>c d>dc>B|A>Bc>A ~B2 A2|G>GG>A B>BB>c|d>dc>B B2 A>A”^D.C.”:|

